src/pos-icons/numeric-9-plus-circle.svg

<svg height="24" viewBox="0 0 24 24" width="24" xmlns="http://www.w3.org/2000/svg"><path d="m19 11h-2v-2h-2v2h-2v2h2v2h2v-2h2zm-9-4h-2a2 2 0 0 0 -2 2v2c0 1.11.9 2 2 2h2v2h-4v2h4a2 2 0 0 0 2-2v-6c0-1.11-.9-2-2-2m-2 2h2v2h-2zm4-7a10 10 0 0 1 10 10 10 10 0 0 1 -10 10 10 10 0 0 1 -10-10 10 10 0 0 1 10-10z"/></svg>

<?xml version="1.0" encoding="UTF-8"?><!DOCTYPE svg PUBLIC "-//W3C//DTD SVG 1.1//EN" "http://www.w3.org/Graphics/SVG/1.1/DTD/svg11.dtd"><svg xmlns="http://www.w3.org/2000/svg" xmlns:xlink="http://www.w3.org/1999/xlink" version="1.1" id="mdi-numeric-9-plus-circle" width="24" height="24" viewBox="0 0 24 24"><path d="M19,11H17V9H15V11H13V13H15V15H17V13H19V11M10,7H8A2,2 0 0,0 6,9V11C6,12.11 6.9,13 8,13H10V15H6V17H10A2,2 0 0,0 12,15V9C12,7.89 11.1,7 10,7M8,9H10V11H8V9M12,2A10,10 0 0,1 22,12A10,10 0 0,1 12,22A10,10 0 0,1 2,12A10,10 0 0,1 12,2Z" /></svg>
